X: 19987
T: Jim Hodder's
R: reel
M: 4/4
K: Edorian
|:~E2B,E ~G2EG|BAGB ~d2Bc|dedB AFDF|G2F2 E2B,D|
~E2B,E ~G2EG|BAGB ~d2Bc|dedB AFDF|1 GEFD E2B,D:|2 GEFD EFGB||
|:[M:6/4] e3f gfeg f~B3|e3f gfe2 b2b2|e3f gfeg fBBc|1 dedB AFDF EFGB:|2 dedB AFDF E2B,D||

